X:1
T:Connaught-Man's Ramble -- Jig
R:jig
B:Ryan's Mammoth Collection
N: 87 451
Z: Contributed by Ray Davies,  ray:davies99.freeserve.co.uk
M:6/8
L:1/8
K:D
vA/G/|\
FAA dAA | BAB dAG | FAA dfe | dBB BAG |
FAA dAA | BAB def | {a}gfe dfe | dBB B2:|
|:ug|\
fbb faa | fed deg | fbb faa | fed e2g |
fbb faa | fed def | gfe dfe | dBB B2:|
